X:911
T:Glory Reel, The
R:reel
D:Altan: Island Angel
Z:id:hn-reel-911
M:C|
L:1/8
K:G
G2BG dGBG | G2BG AFDF | G2BG dGBG | c2Bc AFDF :|
|: E6 cA | BGEB AFDF | E2~E2 E2cA |1 BdcB AFDF :|2 BdcB AFDf ||
|: gagf e3f | g2fg e^cAf | gagf eaaf |1 g2fg e^cAf :|2 g2fg e^cAF ||

